X:2
T:Flowers of Edinburgh, The
R:hornpipe
C:Syracuse session setting
L:1/8
M:4/4
K:G
GE|&quot;G&quot;D2DE ~G3A|BABd cBAG|&quot;D&quot;FGFE DEFE|&quot;D7&quot;D2cA BAGE|
&quot;G&quot;D2DE GFGA|BGBd &quot;C&quot;efge|&quot;G&quot;dcBA &quot;D&quot;GFGA|&quot;G&quot;B2G2 G2:|
(3def|&quot;G&quot;g2gf gbag|&quot;D&quot;f2fe fagf|&quot;C&quot;edef gfed|&quot;Em&quot;Beed e2ge|
&quot;G&quot;dBGB d2 (3Bcd|&quot;C&quot;egfa g2ge|&quot;D&quot;dcBA GFGA|&quot;G&quot;B2G2 G2:|
</abc>
